images/Logo.svg

<svg width="196.000000" height="24.000000" viewBox="0 0 196 24" fill="none" xmlns="http://www.w3.org/2000/svg" xmlns:xlink="http://www.w3.org/1999/xlink">
	<desc>
			Created with Pixso.
	</desc>
	<defs>
		<radialGradient gradientTransform="translate(0 0) rotate(0) scale(12 12)" cx="0.000000" cy="0.000000" r="1.000000" id="paint_angular_0_10592_0" gradientUnits="userSpaceOnUse">
			<stop stop-color="#E7816B" stop-opacity="0.000000"/>
			<stop offset="0.999287" stop-color="#E7816B"/>
		</radialGradient>
	</defs>
	<path id="DESIGNO" d="M48.136 21Q50.1567 21 51.9084 20.3134L51.9091 20.3131Q51.9878 20.2822 52.0659 20.25Q53.2792 19.7495 54.2893 18.9817L54.2894 18.9817Q54.793 18.599 55.246 18.15C56.1539 17.25 56.86 16.2019 57.3639 15.006Q57.3896 14.9451 57.4144 14.8839Q58.12 13.1407 58.12 11.1119Q58.12 9.21985 57.4941 7.56421L57.494 7.56384Q57.4293 7.39258 57.3579 7.224Q56.8901 6.11902 56.1963 5.1814L56.1963 5.1814Q55.7599 4.59155 55.234 4.06799Q54.748 3.58411 54.2047 3.17676Q53.2255 2.44226 52.0599 1.95593Q51.986 1.92505 51.9115 1.89551L51.9064 1.89343Q50.1588 1.19995 48.136 1.19995L42.7 1.19995L42.7 21L48.136 21ZM46.5879 17.52L47.704 17.52C48.6 17.52 49.428 17.36 50.188 17.0399C50.948 16.72 51.6079 16.272 52.168 15.6959C52.7279 15.12 53.1639 14.442 53.476 13.662C53.788 12.882 53.944 12.028 53.944 11.1Q53.944 9.71997 53.476 8.54993C53.1639 7.77002 52.7279 7.08997 52.168 6.51001C51.6079 5.92993 50.948 5.47998 50.188 5.15991Q49.048 4.67993 47.704 4.67993L46.5879 4.67993L46.5879 17.52ZM78.0599 21L78.0599 17.5919L70.932 17.5919L70.932 12.7799L77.772 12.7799L77.772 9.37195L70.932 9.37195L70.932 4.60791L78.0599 4.60791L78.0599 1.19995L67.0439 1.19995L67.0439 21L78.0599 21ZM92.9719 21.3839C94.412 21.3839 95.672 21.146 96.752 20.6699C97.8319 20.194 98.674 19.5039 99.278 18.6C99.882 17.6959 100.184 16.6119 100.184 15.348C100.184 14.484 100.042 13.74 99.7579 13.116Q99.6329 12.8413 99.4753 12.5868Q99.0961 11.974 98.528 11.4779Q97.724 10.776 96.5959 10.2C95.844 9.81592 95.0039 9.42798 94.0759 9.03601C93.6439 8.85999 93.2479 8.69397 92.8879 8.53796C92.528 8.38196 92.22 8.21802 91.964 8.04602C91.708 7.87402 91.51 7.66992 91.37 7.43396Q91.1599 7.07996 91.1599 6.57593C91.1599 6.16797 91.266 5.79797 91.4779 5.46594C91.6899 5.13391 91.9939 4.86792 92.3899 4.66797C92.7859 4.46802 93.2679 4.36792 93.8359 4.36792C94.34 4.36792 94.8379 4.43994 95.33 4.58398Q96.068 4.79993 96.7219 5.15393Q97.376 5.50793 97.892 5.95203L99.512 2.90393Q98.8639 2.35193 97.928 1.88391C97.304 1.57202 96.632 1.31995 95.912 1.12793C95.1919 0.935913 94.4719 0.839966 93.752 0.839966C92.792 0.839966 91.922 1 91.142 1.31995C90.3619 1.64001 89.6899 2.07202 89.126 2.61597C88.562 3.15991 88.1279 3.77991 87.824 4.47595C87.5199 5.172 87.3679 5.90002 87.3679 6.65991C87.3679 7.29993 87.4779 7.87793 87.698 8.39392Q87.8942 8.85425 88.1732 9.2572Q88.3633 9.53186 88.5919 9.77991C88.9679 10.188 89.3979 10.546 89.882 10.854C90.366 11.162 90.876 11.4359 91.412 11.676C92.132 11.9879 92.7739 12.2739 93.3379 12.5339C93.902 12.7939 94.3779 13.058 94.766 13.3259C95.1539 13.594 95.448 13.8939 95.6479 14.226C95.8479 14.558 95.948 14.96 95.948 15.432C95.948 15.9519 95.824 16.386 95.5759 16.734C95.328 17.0819 94.99 17.344 94.562 17.52C94.1339 17.6959 93.6399 17.7839 93.08 17.7839C92.48 17.7839 91.9139 17.698 91.382 17.526C90.85 17.354 90.356 17.1379 89.8999 16.8779C89.444 16.6179 89.032 16.344 88.6639 16.0559C88.2959 15.7679 87.98 15.5079 87.7159 15.276L85.724 18.4919C85.98 18.74 86.328 19.028 86.7679 19.356C87.208 19.684 87.7339 20.002 88.3459 20.3099C88.958 20.6179 89.652 20.874 90.428 21.078C91.204 21.282 92.052 21.3839 92.9719 21.3839ZM113.056 21L113.056 1.19995L109.168 1.19995L109.168 21L113.056 21ZM131.748 21.3839C132.916 21.3839 134.044 21.1859 135.132 20.7899C136.22 20.3939 137.196 19.834 138.06 19.11C138.924 18.386 139.606 17.526 140.106 16.5299Q140.205 16.3331 140.291 16.1309Q140.856 14.7972 140.856 13.224L140.856 10.224L131.7 10.224L131.7 13.236L136.896 13.236L136.896 13.536C136.896 14.152 136.76 14.72 136.488 15.24C136.216 15.76 135.848 16.2119 135.384 16.5959C134.92 16.98 134.39 17.278 133.794 17.49C133.198 17.7019 132.58 17.808 131.94 17.808C131.14 17.808 130.394 17.6439 129.702 17.3159C129.01 16.9879 128.406 16.52 127.89 15.912Q127.116 15 126.684 13.74C126.396 12.9 126.252 11.964 126.252 10.932C126.252 9.98792 126.38 9.11401 126.636 8.30994Q127.02 7.104 127.764 6.20398Q128.051 5.85718 128.388 5.56995Q128.927 5.11206 129.594 4.80591Q130.68 4.30798 132.096 4.30798Q133.536 4.30798 135.018 4.84192C136.006 5.198 136.848 5.69995 137.544 6.34802L139.368 3.33594C138.72 2.79993 137.992 2.34595 137.184 1.974C136.376 1.60193 135.534 1.31995 134.658 1.12793C133.782 0.935913 132.912 0.839966 132.048 0.839966C130.52 0.839966 129.14 1.10999 127.908 1.65002Q126.515 2.26062 125.428 3.21912Q125.074 3.53198 124.752 3.88196Q124.318 4.35376 123.951 4.87305Q123.213 5.91907 122.748 7.15796C122.284 8.39392 122.052 9.70801 122.052 11.1Q122.052 13.2839 122.796 15.156C123.292 16.4039 123.98 17.494 124.86 18.426Q125.493 19.0969 126.229 19.6255Q127.026 20.1984 127.944 20.604C129.12 21.124 130.388 21.3839 131.748 21.3839ZM153.668 21L153.668 7.67993L162.2 21L166.088 21L166.088 1.19995L162.2 1.19995L162.2 14.52L153.668 1.19995L149.78 1.19995L149.78 21L153.668 21ZM185.032 21.3839C186.416 21.3839 187.712 21.12 188.92 20.5919C190.128 20.064 191.188 19.33 192.1 18.39C193.012 17.45 193.726 16.3579 194.242 15.114C194.758 13.87 195.016 12.536 195.016 11.1119C195.016 9.68799 194.758 8.354 194.242 7.10999C193.726 5.86597 193.012 4.77393 192.1 3.83398C191.188 2.89392 190.128 2.15991 188.92 1.63196C187.712 1.104 186.416 0.839966 185.032 0.839966C183.648 0.839966 182.352 1.104 181.144 1.63196Q180.158 2.06287 179.304 2.67664Q178.588 3.19104 177.964 3.83398C177.052 4.77393 176.338 5.86597 175.822 7.10999C175.306 8.354 175.048 9.68799 175.048 11.1119C175.048 12.536 175.306 13.87 175.822 15.114C176.338 16.3579 177.052 17.45 177.964 18.39C178.876 19.33 179.936 20.064 181.144 20.5919C182.352 21.12 183.648 21.3839 185.032 21.3839ZM182.71 17.1599C183.418 17.48 184.188 17.64 185.02 17.64Q186.281 17.64 187.331 17.1678Q187.339 17.1639 187.348 17.1599Q187.807 16.9512 188.214 16.6675Q188.743 16.299 189.184 15.804C189.704 15.22 190.108 14.5299 190.396 13.734Q190.828 12.5399 190.828 11.1119Q190.828 9.68396 190.396 8.48999C190.108 7.69397 189.704 7.00391 189.184 6.41992Q188.743 5.92505 188.214 5.55652Q187.807 5.27271 187.348 5.06396Q187.339 5.06006 187.331 5.05615Q186.281 4.58398 185.02 4.58398C184.188 4.58398 183.418 4.74402 182.71 5.06396C182.002 5.38391 181.388 5.83594 180.868 6.41992C180.348 7.00391 179.946 7.69397 179.662 8.48999Q179.236 9.68396 179.236 11.1119Q179.236 12.5399 179.662 13.734C179.946 14.5299 180.348 15.22 180.868 15.804C181.388 16.3879 182.002 16.84 182.71 17.1599Z" clip-rule="evenodd" fill="#333136" fill-opacity="1.000000" fill-rule="evenodd"/>
	<circle id="Oval" r="12.000000" transform="matrix(-6.12323e-17 -1 -1 6.12323e-17 12 12)" fill="url(#paint_angular_0_10592_0)" fill-opacity="1.000000"/>
	<circle id="Oval" r="12.000000" transform="matrix(-6.12323e-17 -1 -1 6.12323e-17 12 12)" stroke="#979797" stroke-opacity="0" stroke-width="0.000000"/>
</svg>

<svg width="196" height="24" fill="none" xmlns="http://www.w3.org/2000/svg"><defs><radialGradient gradientTransform="scale(12)" cx="0" cy="0" r="1" id="a" gradientUnits="userSpaceOnUse"><stop stop-color="#E7816B" stop-opacity="0"/><stop offset=".999" stop-color="#E7816B"/></radialGradient></defs><path d="M48.136 21q2.02 0 3.772-.687h.001q.079-.03.157-.063 1.213-.5 2.223-1.268.504-.383.957-.832a9.666 9.666 0 0 0 2.118-3.144q.026-.06.05-.122.706-1.743.706-3.772 0-1.892-.626-3.548-.065-.171-.136-.34-.468-1.105-1.162-2.043-.436-.59-.962-1.113-.486-.484-1.03-.891-.979-.735-2.144-1.221-.074-.031-.149-.06l-.005-.003Q50.16 1.2 48.136 1.2H42.7V21h5.436Zm-1.548-3.48h1.116c.896 0 1.724-.16 2.484-.48.76-.32 1.42-.768 1.98-1.344a6.173 6.173 0 0 0 1.308-2.034c.312-.78.468-1.634.468-2.562q0-1.38-.468-2.55a6.243 6.243 0 0 0-1.308-2.04 5.908 5.908 0 0 0-1.98-1.35q-1.14-.48-2.484-.48h-1.116v12.84ZM78.06 21v-3.408h-7.128V12.78h6.84V9.372h-6.84V4.608h7.128V1.2H67.044V21H78.06Zm14.912.384c1.44 0 2.7-.238 3.78-.714 1.08-.476 1.922-1.166 2.526-2.07.604-.904.906-1.988.906-3.252 0-.864-.142-1.608-.426-2.232q-.125-.275-.283-.53-.379-.612-.947-1.108-.804-.702-1.932-1.278a38.456 38.456 0 0 0-2.52-1.164 58.839 58.839 0 0 1-1.188-.498 5.792 5.792 0 0 1-.924-.492 1.92 1.92 0 0 1-.594-.612q-.21-.354-.21-.858c0-.408.106-.778.318-1.11.212-.332.516-.598.912-.798.396-.2.878-.3 1.446-.3.504 0 1.002.072 1.494.216q.738.216 1.392.57.654.354 1.17.798l1.62-3.048q-.648-.552-1.584-1.02a10.612 10.612 0 0 0-2.016-.756 8.352 8.352 0 0 0-2.16-.288c-.96 0-1.83.16-2.61.48-.78.32-1.452.752-2.016 1.296a5.778 5.778 0 0 0-1.302 1.86 5.398 5.398 0 0 0-.456 2.184c0 .64.11 1.218.33 1.734q.196.46.475.863.19.275.419.523c.376.408.806.766 1.29 1.074.484.308.994.582 1.53.822a91.9 91.9 0 0 1 1.926.858c.564.26 1.04.524 1.428.792.388.268.682.568.882.9.2.332.3.734.3 1.206 0 .52-.124.954-.372 1.302-.248.348-.586.61-1.014.786-.428.176-.922.264-1.482.264-.6 0-1.166-.086-1.698-.258a7.874 7.874 0 0 1-1.482-.648c-.456-.26-.868-.534-1.236-.822a22.035 22.035 0 0 1-.948-.78l-1.992 3.216a10.873 10.873 0 0 0 2.622 1.818c.612.308 1.306.564 2.082.768a9.989 9.989 0 0 0 2.544.306ZM113.056 21V1.2h-3.888V21h3.888Zm18.692.384a9.818 9.818 0 0 0 3.384-.594 9.666 9.666 0 0 0 2.928-1.68 8.041 8.041 0 0 0 2.046-2.58q.099-.197.185-.4.565-1.333.565-2.906v-3H131.7v3.012h5.196v.3a3.62 3.62 0 0 1-.408 1.704c-.272.52-.64.972-1.104 1.356a5.205 5.205 0 0 1-1.59.894 5.494 5.494 0 0 1-1.854.318c-.8 0-1.546-.164-2.238-.492a5.382 5.382 0 0 1-1.812-1.404q-.774-.912-1.206-2.172c-.288-.84-.432-1.776-.432-2.808a8.6 8.6 0 0 1 .384-2.622q.384-1.206 1.128-2.106.287-.347.624-.634.539-.458 1.206-.764 1.086-.498 2.502-.498 1.44 0 2.922.534c.988.356 1.83.858 2.526 1.506l1.824-3.012a9.904 9.904 0 0 0-2.184-1.362 12.336 12.336 0 0 0-2.526-.846 12.16 12.16 0 0 0-2.61-.288c-1.528 0-2.908.27-4.14.81q-1.393.61-2.48 1.57-.354.312-.676.662-.434.472-.801.991-.738 1.046-1.203 2.285a11.123 11.123 0 0 0-.696 3.942q0 2.184.744 4.056a10.194 10.194 0 0 0 2.064 3.27q.633.67 1.369 1.2.797.572 1.715.978c1.176.52 2.444.78 3.804.78Zm21.92-.384V7.68L162.2 21h3.888V1.2H162.2v13.32L153.668 1.2h-3.888V21h3.888Zm31.364.384c1.384 0 2.68-.264 3.888-.792a9.925 9.925 0 0 0 3.18-2.202 10.353 10.353 0 0 0 2.916-7.278 10.35 10.35 0 0 0-2.916-7.278 9.925 9.925 0 0 0-3.18-2.202 9.601 9.601 0 0 0-3.888-.792c-1.384 0-2.68.264-3.888.792q-.986.43-1.84 1.045-.716.514-1.34 1.157a10.35 10.35 0 0 0-2.916 7.278 10.353 10.353 0 0 0 2.916 7.278 9.925 9.925 0 0 0 3.18 2.202 9.599 9.599 0 0 0 3.888.792Zm-2.322-4.224c.708.32 1.478.48 2.31.48q1.261 0 2.311-.472l.017-.008q.459-.209.866-.492.529-.369.97-.864a6.297 6.297 0 0 0 1.212-2.07q.432-1.194.432-2.622t-.432-2.622a6.296 6.296 0 0 0-1.212-2.07q-.441-.495-.97-.863-.407-.284-.866-.493l-.017-.008q-1.05-.472-2.311-.472c-.832 0-1.602.16-2.31.48a5.442 5.442 0 0 0-1.842 1.356 6.214 6.214 0 0 0-1.206 2.07q-.426 1.194-.426 2.622t.426 2.622a6.215 6.215 0 0 0 1.206 2.07 5.442 5.442 0 0 0 1.842 1.356Z" clip-rule="evenodd" fill="#333136" fill-rule="evenodd"/><circle r="12" transform="matrix(0 -1 -1 0 12 12)" fill="url(#a)"/><circle r="12" transform="matrix(0 -1 -1 0 12 12)"/></svg>
